!!!COM: Josquin des Prez
!!!CDT: ~1450-1521/08/27
!!!OTL@@LAT: Sabat mater/Comme femme desconfort&eacute;e
!!!OTL2@@LAT: Eia mater
!!!AGN: Motet
!!!SCT: NJE 25.9
!!!SCA: New Josquin Edition 25.9
!!!voices: 5
**kern	**kern	**kern	**kern	**kern
*staff5	*staff4	*staff3	*staff2	*staff1
*Ivox	*Ivox	*Ivox	*Ivox	*Ivox
*I"Bassus	*I"Altus2	*I"Tenor	*I"Altus1	*I"Superius
*I'B	*I'A2	*I'T	*I'A1	*I'S
*>[A,B]	*>[A,B]	*>[A,B]	*>[A,B]	*>[A,B]
*>Part1[A]	*>Part1[A]	*>Part1[A]	*>Part1[A]	*>Part1[A]
*>Part2[B]	*>Part2[B]	*>Part2[B]	*>Part2[B]	*>Part2[B]
*>A	*>A	*>A	*>A	*>A
*clefF4	*clefGv2	*clefGv2	*clefGv2	*clefG2
*k[b-]	*k[b-]	*k[b-]	*k[b-]	*k[b-]
*M2/1	*M2/1	*M2/1	*M2/1	*M2/1
*met(C|)	*met(C|)	*met(C|)	*met(C|)	*met(C|)
=1-	=1-	=1-	=1-	=1-
!	!	!LO:TX:Y=20:t=Comme femme	!	!
1c	0r	[0c	0r	1r
1c	.	.	.	1cc
=2	=2	=2	=2	=2
1A	0r	0c]	0r	1cc
1F	.	.	.	1a
=3	=3	=3	=3	=3
2.B-\	1r	0d	0r	1f
4A\	.	.	.	.
1G	1B-	.	.	1b-
=4	=4	=4	=4	=4
[0F	2c\	[0f	1c	2.a/
.	1A	.	.	.
.	.	.	.	4f/
.	.	.	1c	1f
.	4G/	.	.	.
.	4F/	.	.	.
=5	=5	=5	=5	=5
0F]	2F/	0f]	2.A/	0r
.	2c\	.	.	.
.	.	.	4F/	.
.	2d\	.	1F	.
.	[2c\	.	.	.
=6	=6	=6	=6	=6
0C	2c\]	0e	2c\	0r
.	4B-\	.	2c\	.
.	4A/	.	.	.
.	1G	.	1c	.
=7	=7	=7	=7	=7
1r	1F	[0f	1A	0r
1F	1F	.	2r	.
.	.	.	2A/	.
=8	=8	=8	=8	=8
1BB-	1B-	0f_	1d	1r
1BB-	1B-	.	1d	1f
=9	=9	=9	=9	=9
1F	1A	0f_	1c	2.a/
.	.	.	.	4b-\
1F	[1F	.	1c	1cc
=10	=10	=10	=10	=10
1D	2F/]	0f]	1d	2f/
.	2F/	.	.	2ff\
1D	1F	.	1d	2ff\
.	.	.	.	[2ff\
=11	=11	=11	=11	=11
0C	0c	[0g	0G	2ff\]
.	.	.	.	4ee\
.	.	.	.	4dd\
.	.	.	.	1ee
=12	=12	=12	=12	=12
0r	2r	0g]	2r	2r
.	2C/	.	2c\	2ee\
.	2C/	.	2c\	2ee\
.	2C/	.	2c\	2ee\
=13	=13	=13	=13	=13
0r	2.F/	0f	2A/	2.ff\
.	.	.	2.a\	.
.	4G/	.	.	4ee\
.	2A/	.	.	2cc\
.	.	.	4g\	.
.	2B-\	.	[2f\	[2dd\
=14	=14	=14	=14	=14
0r	1A	0c	2f\]	2dd\]
.	.	.	4e\	4cc\
.	.	.	4d\	4b-\
.	1A	.	1e	1cc
=15	=15	=15	=15	=15
1r	0D	[0f	1d	2dd\
.	.	.	.	2dd\
1D	.	.	2r	2dd\
.	.	.	2d\	2dd\
=16	=16	=16	=16	=16
1D	1r	0f]	2d\	1a
.	.	.	2d\	.
1D	1D	.	1A	1a
=17	=17	=17	=17	=17
1AA	1A	[0e	1A	1cc
1AA	1A	.	1c	1cc
=18	=18	=18	=18	=18
1C	1E	0e]	1c	1g
1C	2E/	.	1G	2r
.	2E/	.	.	2g/
=19	=19	=19	=19	=19
1GG	2.G/	0d	2r	1b-
.	.	.	2d\	.
.	4F/	.	.	.
2r	1D	.	1f	1b-
2D\	.	.	.	.
=20	=20	=20	=20	=20
1F	2r	0c	1f	1a
.	1A	.	.	.
1F	.	.	1c	1a
.	2A/	.	.	.
=21	=21	=21	=21	=21
1C	2.c\	0e	1r	1g
.	4B-\	.	.	.
1C	1G	.	1c	1g
=22	=22	=22	=22	=22
1F	1r	0f	1c	1.a
1F	1F	.	[1f	.
.	.	.	.	4g/
.	.	.	.	4f/
=23	=23	=23	=23	=23
0BB-	1.B-	[0d	2f\]	1f
.	.	.	2e\	.
.	.	.	2d\	[1b-
.	2A/	.	2c\	.
=24	=24	=24	=24	=24
1r	2G/	0d]	2.B-\	2b-\]
.	2F/	.	.	2a/
.	.	.	4c\	.
1BB-	1B-	.	4d\	2.f/
.	.	.	4e\	.
.	.	.	[2f\	.
.	.	.	.	4g/
=25	=25	=25	=25	=25
1F	1A	[0c	2f\]	1a
.	.	.	2F/	.
2E\	2r	.	2G/	2g/
[2F\	[2A/	.	2F/	[2cc\
=26	=26	=26	=26	=26
1F]	2A/]	0c_	2A/	4cc\]
.	.	.	.	4b-\
.	2F/	.	2.c\	2a/
2E\	2G/	.	.	2g/
.	.	.	4B-\	.
[2F\	2F/	.	4A/	[2a/
.	.	.	4G/	.
=27	=27	=27	=27	=27
1F]	1A	0c_	1F	4a/]
.	.	.	.	4g/
.	.	.	.	1f
1C	1G	.	1G	.
.	.	.	.	2e/
=28	=28	=28	=28	=28
2r	0F	0c]	1A	0f
2F\	.	.	.	.
[1A	.	.	2r	.
.	.	.	2F/	.
=29	=29	=29	=29	=29
2A\]	0r	[0F	1.A	1r
2B-\	.	.	.	.
1c	.	.	.	1f
.	.	.	2B-\	.
=30	=30	=30	=30	=30
1F	1F	0F]	1c	1.a
1r	[1A	.	1F	.
.	.	.	.	2b-\
=31	=31	=31	=31	=31
1F	2A/]	[0A	1r	1cc
.	2B-\	.	.	.
2F\	1c	.	2r	2f/
[2F\	.	.	2f\	[2cc\
=32	=32	=32	=32	=32
2F\]	1F	0A]	2f\	2cc\]
4E\	.	.	2f\	2cc\
4D\	.	.	.	.
1C	2r	.	1e	1cc
.	2E/	.	.	.
=33	=33	=33	=33	=33
1BB-	1F	[0B-	1d	1dd
1BB-	1F	.	2r	2r
.	.	.	2d\	[2b-\
=34	=34	=34	=34	=34
1E-	2.G/	0B-_	1e-	2b-\]
.	.	.	.	2a/
.	4F/	.	.	.
1E-i	4G/	.	1e-i	1g
.	4A/	.	.	.
.	[2B-\	.	.	.
=35	=35	=35	=35	=35
1BB-	4B-\]	0B-_	1d	1f
.	4A/	.	.	.
.	2F/	.	.	.
2r	2G/	.	2d\	[1b-
[2BB-/	2F/	.	2d\	.
=36	=36	=36	=36	=36
2BB-/]	2G/	0B-]	2.d\	2b-\]
2BB-/	2F/	.	.	2b-\
.	.	.	4e\	.
1BB-	1D	.	1f	1b-
=37	=37	=37	=37	=37
1F	2r	[0c	2r	1a
.	2A/	.	1f	.
2F\	2A/	.	.	2a/
2F\	[2c\	.	2f\	2a/
=38	=38	=38	=38	=38
2.C/	2c\]	0c]	2.e\	2.g/
.	4B-\	.	.	.
4C/	4A/	.	4e\	4g/
2C/	2G/	.	2e\	2g/
2C/	2G/	.	2e\	2g/
=39	=39	=39	=39	=39
1F	1F	[0A	1f	0a
2r	2r	.	2r	.
[2F\	[2D/	.	[2f\	.
=40	=40	=40	=40	=40
2F\]	2D/]	0A_	2f\]	0r
2C/	2E/	.	2e\	.
1D	1F	.	1d	.
=41	=41	=41	=41	=41
1AA	1E	0A_	4c\	0r
.	.	.	4B-\	.
.	.	.	4A/	.
.	.	.	4G/	.
2r	2r	.	2F/	.
[2D\	[2F/	.	2F/	.
=42	=42	=42	=42	=42
2D\]	2F/]	0A]	1f	0r
2D\	2D/	.	.	.
2.C/	2.E/	.	1e	.
4BB-/	4F/	.	.	.
=43	=43	=43	=43	=43
1GG	1G	0B-	1d	0r
2r	2r	.	2r	.
2GG/	2G/	.	2d\	.
=44	=44	=44	=44	=44
1D	2F/	0A	1d	0r
.	2D/	.	.	.
1AA	1E	.	1c	.
=45	=45	=45	=45	=45
1BB-	1D	[0F	1d	0r
2r	2r	.	2r	.
2AA/	[2A/	.	2c\	.
=46	=46	=46	=46	=46
1D	2A/]	0F]	1f	0r
.	2A/	.	.	.
1D	2.A/	.	1f	.
.	4B-\	.	.	.
=47	=47	=47	=47	=47
0C	1c	0G	1e	0r
.	1r	.	2r	.
.	.	.	[2c\	.
=48	=48	=48	=48	=48
1r	1.c	0F	2c\]	0r
.	.	.	2B-\	.
[1c	.	.	2A/	.
.	2B-\	.	2G/	.
=49	=49	=49	=49	=49
2c\]	2A/	[0c	2.F/	1r
2B-\	2G/	.	.	.
.	.	.	4E/	.
2A\	2F/	.	2F/	[1cc
2G\	2E/	.	2G/	.
=50	=50	=50	=50	=50
1.F	1F	0c]	1A	2cc\]
.	.	.	.	2b-\
.	1r	.	1r	2a/
2C/	.	.	.	[2g/
=51	=51	=51	=51	=51
2E\	0r	0B-	0r	4g/]
.	.	.	.	4f/
2F\	.	.	.	1f
1G	.	.	.	.
.	.	.	.	2e/
=52	=52	=52	=52	=52
0F	[0c	0A	2r	1f
.	.	.	2A/	.
.	.	.	2c\	[1cc
.	.	.	2d\	.
=53	=53	=53	=53	=53
[0C	0c_	[0G	1e	2cc\]
.	.	.	.	2b-\
.	.	.	2r	2a/
.	.	.	2c\	[2g/
=54	=54	=54	=54	=54
0C]	0c]	0G]	2e\	4g/]
.	.	.	.	4f/
.	.	.	2f\	1f
.	.	.	1g	.
.	.	.	.	2e/
=55	=55	=55	=55	=55
1c	0A	[0F	0a	0f
2d\	.	.	.	.
[2c\	.	.	.	.
=56	=56	=56	=56	=56
4c\]	1c	0F_	0r	0r
4B-\	.	.	.	.
4A\	.	.	.	.
4G\	.	.	.	.
1F	2d\	.	.	.
.	[2c\	.	.	.
=57	=57	=57	=57	=57
2.A\	4c\]	0F_	0r	0r
.	4B-\	.	.	.
.	4A/	.	.	.
4B-\	4G/	.	.	.
1c	2F/	.	.	.
.	2F/	.	.	.
=58	=58	=58	=58	=58
1F	1A	0F_	1c	0r
1r	2.A/	.	2d\	.
.	.	.	[2c\	.
.	4B-\	.	.	.
=59	=59	=59	=59	=59
0r	1c	0F_	4c\]	1cc
.	.	.	4B-\	.
.	.	.	4A/	.
.	.	.	4G/	.
.	1r	.	2F/	2dd\
.	.	.	2F/	[2cc\
=60	=60	=60	=60	=60
0r	0r	0F]	2.A/	4cc\]
.	.	.	.	4b-\
.	.	.	.	4a/
.	.	.	4B-\	4g/
.	.	.	1c	2f/
.	.	.	.	2f/
=61	=61	=61	=61	=61
1r	1r	[0f	1F	2.a/
.	.	.	.	4b-\
2r	2r	.	2r	1cc
[2F\	[2c\	.	[2A/	.
=62	=62	=62	=62	=62
2F\]	2c\]	0f_	2A/]	2f/
2F\	2c\	.	2A/	1a
2F\	2c\	.	2A/	.
2F\	2c\	.	2A/	2a/
=63	=63	=63	=63	=63
1D	2d\	0f]	1F	2a/
.	2c\	.	.	2a/
1F	1A	.	1F	2a/
.	.	.	.	2a/
=64	=64	=64	=64	=64
1C	1r	0e	0c	0g
2r	2r	.	.	.
2C/	2G/	.	.	.
=65	=65	=65	=65	=65
2F\	2A/	[0c	0r	0r
2F\	2A/	.	.	.
2E\	2G/	.	.	.
[2A\	[2c\	.	.	.
=66	=66	=66	=66	=66
2A\]	2c\]	0c]	0r	0r
2F\	2A/	.	.	.
1E	1G	.	.	.
=67	=67	=67	=67	=67
0D	1A	[0d	2r	2r
.	.	.	1f	2a/
.	1r	.	.	2b-\
.	.	.	2f\	[2a/
=68	=68	=68	=68	=68
0r	0r	1d]	1f	2a/]
.	.	.	.	4g/
.	.	.	.	4f/
.	.	1c	1e	1g
=69	=69	=69	=69	=69
0r	0r	0A	2f\	2a/
.	.	.	2e\	2.ee\
.	.	.	4c\	.
.	.	.	4d\	4dd\
.	.	.	4e\	[2cc\
.	.	.	4f\	.
=70	=70	=70	=70	=70
0r	1r	0G	2g\	2cc\]
.	.	.	2e\	4bni\
.	.	.	.	4a/
.	2r	.	1d	1bni
.	2G/	.	.	.
=71	=71	=71	=71	=71
2r	2A/	0c	1c	0cc
2C/	2G/	.	.	.
1F	1A	.	2r	.
.	.	.	2c\	.
=72	=72	=72	=72	=72
1C	1G	0e-i	2c\	0r
.	.	.	2c\	.
2r	2r	.	2.c\	.
2C/	2G/	.	.	.
.	.	.	8B-\L	.
.	.	.	8c\J	.
=73	=73	=73	=73	=73
1D	1F	0d	4B-\	0r
.	.	.	4A/	.
.	.	.	1A	.
1BB-	1D	.	.	.
.	.	.	2G/	.
=74	=74	=74	=74	=74
1AA	2E/	[0c	2.A/	1cc
.	2A/	.	.	.
.	.	.	4B-\	.
2r	2A/	.	4c\	2a/
.	.	.	4d\	.
2AA/	2A/	.	2e\	[2cc\
=75	=75	=75	=75	=75
1C	1G	0c]	2r	2cc\]
.	.	.	2g\	4b-\
.	.	.	.	4a/
1C	2r	.	2e\	1g
.	2E/	.	[2g\	.
=76	=76	=76	=76	=76
0GG	1G	0B-	2g\]	2g/
.	.	.	4f\	2g/
.	.	.	4e\	.
.	1G	.	2d\	1g
.	.	.	2d\	.
=77	=77	=77	=77	=77
2r	0D	[0A	2f\	0a
2D\	.	.	2f\	.
2F\	.	.	2d\	.
2F\	.	.	2d\	.
=78	=78	=78	=78	=78
2D\	0r	0A]	2.f\	0r
2D\	.	.	.	.
.	.	.	4e\	.
2F\	.	.	2c\	.
2F\	.	.	2d\	.
=79	=79	=79	=79	=79
1C	2r	0G	2e\	0r
.	1c	.	2c\	.
1r	.	.	2d\	.
.	2B-\	.	2d\	.
=80	=80	=80	=80	=80
0r	2c\	[0c	2e\	0r
.	2F/	.	2.A/	.
.	2.A/	.	.	.
.	.	.	4B-\	.
.	.	.	4c\	.
.	4B-\	.	4d\	.
=81	=81	=81	=81	=81
2r	1c	0c]	1e	2r
2C/	.	.	.	2g/
2F\	1r	.	2r	2a/
2F\	.	.	2c\	2a/
=82	=82	=82	=82	=82
2D\	0r	0d	2f\	2a/
2D\	.	.	2f\	2a/
2.G\	.	.	2d\	1b-
.	.	.	2d\	.
4F\	.	.	.	.
=83	=83	=83	=83	=83
4E\	2r	0e	2.g\	1cc
4D\	.	.	.	.
2C/	2c\	.	.	.
.	.	.	4f\	.
2r	2c\	.	4e\	2g/
.	.	.	4d\	.
2C/	2c\	.	2c\	2g/
=84	=84	=84	=84	=84
2F\	2A/	0f	2c\	2a/
2F\	2A/	.	2f\	2a/
2D\	2.d\	.	2f\	2a/
2D\	.	.	2d\	2a/
.	4c\	.	.	.
=85	=85	=85	=85	=85
2.G\	4B-\	[0gl	2d\	1b-
.	4A/	.	.	.
.	2G/	.	2.g\	.
4F\	.	.	.	.
4E\	2r	.	.	1cc
4D\	.	.	4f\	.
2C/	[2c\	.	4e\	.
.	.	.	4d\	.
=86	=86	=86	=86	=86
2r	2c\]	0g_	2e\	2g/
2C/	2c\	.	2c\	2ee\
2G\	2B-\	.	2r	2dd\
[2C/	2c\	.	2c\	[2ee\
=87	=87	=87	=87	=87
4C/]	1e	0g_	2G/	4ee\]
4D\	.	.	.	4dd\
4E\	.	.	2.g\	2.cc\
4F\	.	.	.	.
2G\	1d	.	.	.
.	.	.	4f\	4bni\
2G\	.	.	2d\	4bni\
.	.	.	.	4a/
=88	=88	=88	=88	=88
2.C/	0cl	0g]	2.e\	0ccl
4C/	.	.	4e\	.
1Cl	.	.	1el	.
!!LO:LB:i:g=z
=89||	=89||	=89||	=89||	=89||
!!section: Secunda pars: Eia mater
!!!OMD: Secunda pars: Eia mater
*>B	*>B	*>B	*>B	*>B
*M2/1	*M2/1	*M2/1	*M2/1	*M2/1
*met(C|)	*met(C|)	*met(C|)	*met(C|)	*met(C|)
1.F	1c	[0a	0r	0r
.	2d\	.	.	.
2D\	[2f\	.	.	.
=90	=90	=90	=90	=90
1D	2f\]	0a_	0r	1r
.	4e\	.	.	.
.	4d\	.	.	.
1A	1e	.	.	1cc
=91	=91	=91	=91	=91
0D	1.d	0a_	0r	2dd\
.	.	.	.	1ff
.	4c\	.	.	4ee\
.	4B-\	.	.	4dd\
=92	=92	=92	=92	=92
0r	1A	0a]	1c	1ee
.	2D/	.	2d\	1dd
.	2d\	.	[2f\	.
=93	=93	=93	=93	=93
0r	4e\	0g	2f\]	1r
.	4d\	.	.	.
.	4c#i\	.	4e\	.
.	4Bni\	.	4d\	.
.	1c#i	.	1e	1ee
=94	=94	=94	=94	=94
1r	1d	0f	1d	2.ff\
.	.	.	.	4ee\
1D	2r	.	1d	4dd\
.	.	.	.	4cc\
.	2A/	.	.	[2dd\
=95	=95	=95	=95	=95
1G	4B-\	[0d	1d	4dd\]
.	4A/	.	.	4cc\
.	4G/	.	.	4b-\
.	4F/	.	.	4a/
1G	1G	.	1g	1b-
=96	=96	=96	=96	=96
2.D\	1.A	0d]	1.f	1a
4E\	.	.	.	.
2F\	.	.	.	1r
2G\	2B-\	.	4e\	.
.	.	.	4d\	.
=97	=97	=97	=97	=97
2C/	2c\	[0g	2e\	0r
2G\	2B-\	.	2d\	.
4C/	2c\	.	1e	.
4D\	.	.	.	.
4E\	[2G/	.	.	.
4F\	.	.	.	.
=98	=98	=98	=98	=98
0G	4G/]	0g_	2d\	0r
.	4A/	.	.	.
.	4B-\	.	4G/	.
.	4c\	.	4A/	.
.	2d\	.	4B-\	.
.	.	.	4c\	.
.	4G/	.	2d\	.
.	4A/	.	.	.
=99	=99	=99	=99	=99
1r	4B-\	0g]	4G/	1r
.	4c\	.	4A/	.
.	2d\	.	4B-\	.
.	.	.	4c\	.
1G	2G/	.	2d\	1b-
.	2d\	.	2G/	.
=100	=100	=100	=100	=100
1G	4G/	0g	1d	1b-
.	4A/	.	.	.
.	4B-\	.	.	.
.	4c\	.	.	.
1G	2d\	.	2r	1b-
.	2G/	.	2d\	.
=101	=101	=101	=101	=101
1D	0A	[0f	1d	1a
1D	.	.	1d	1dd
=102	=102	=102	=102	=102
1F	0r	0f]	1A	2.cc\
.	.	.	.	4b-\
1F	.	.	1A	1a
=103	=103	=103	=103	=103
1C	1r	0e	2.c\	1g
.	.	.	4B-\	.
2r	1c	.	2A/	2r
2C/	.	.	2G/	2g/
=104	=104	=104	=104	=104
1F	1A	0f	0F	1a
1D	1d	.	.	1a
=105	=105	=105	=105	=105
1.G	2r	[0d	0r	1.b-
.	4G/	.	.	.
.	4A/	.	.	.
.	4B-\	.	.	.
.	4c\	.	.	.
4F\	[2d\	.	.	4a/
4E\	.	.	.	4g/
=106	=106	=106	=106	=106
2F\	2d\]	0d]	0r	2a/
2G\	2B-\	.	.	2.g/
2.D\	1A	.	.	.
.	.	.	.	4d/
.	.	.	.	4f/
4E\	.	.	.	4g/
=107	=107	=107	=107	=107
4F\	2r	[0c	0r	4a/
4G\	.	.	.	4b-\
1A	4F/	.	.	2.cc\
.	4G/	.	.	.
.	4A/	.	.	.
.	4B-\	.	.	4b-\
2F\	[2c\	.	.	2a/
=108	=108	=108	=108	=108
2E\	2c\]	0c_	0r	2g/
2F\	2A/	.	.	1f
1C	1G	.	.	.
.	.	.	.	2e/
=109	=109	=109	=109	=109
0F	1F	0c]	1r	0f
.	1F	.	1f	.
=110	=110	=110	=110	=110
0r	1B-	[0d	1f	1r
.	1B-	.	1f	1f
=111	=111	=111	=111	=111
0r	1G	0d]	1g	1b-
.	1G	.	1g	1b-
=112	=112	=112	=112	=112
0r	2.c\	0e	2g\	2g/
.	.	.	1e	2g/
.	4B-\	.	.	.
.	2.A/	.	.	2.cc\
.	.	.	2c\	.
.	4G/	.	.	4b-\
=113	=113	=113	=113	=113
1r	1F	[0f	1c	2.a/
.	.	.	.	4g/
2r	2r	.	2r	1f
2BB-/	2d\	.	2B-\	.
=114	=114	=114	=114	=114
2F\	2c\	0f_	2A/	0r
2.BB-/	1d	.	1B-	.
4C/	.	.	.	.
4D\	4c\	.	4A/	.
4E\	4B-\	.	4G/	.
=115	=115	=115	=115	=115
2F\	2A/	0f_	2F/	0r
2BB-/	2B-\	.	2d\	.
1r	2A/	.	2c\	.
.	[2B-\	.	[2d\	.
=116	=116	=116	=116	=116
2r	4B-\]	0f]	2d\]	2r
.	4A/	.	.	.
2BB-/	2B-\	.	4c\	2dd\
.	.	.	4B-\	.
2F\	1F	.	2A/	2cc\
[2BB-/	.	.	[2B-\	[2dd\
=117	=117	=117	=117	=117
4BB-/]	0r	[0d	2B-\]	2dd\]
4C/	.	.	.	.
4D\	.	.	4A/	4cc\
4E\	.	.	4G/	4b-\
2F\	.	.	2F/	2a/
[2G\	.	.	[2B-\	[2b-\
=118	=118	=118	=118	=118
2G\]	0r	0d]	2B-\]	2b-\]
2A\	.	.	2c\	4a/
.	.	.	.	4g/
2.B-\	.	.	2.d\	2.f/
4A\	.	.	4e\	4g/
=119	=119	=119	=119	=119
4F\	0r	0c	2f\	4a/
4G\	.	.	.	4b-\
4A\	.	.	2.c\	2.cc\
4B-\	.	.	.	.
2.c\	.	.	.	.
.	.	.	4d\	4b-\
.	.	.	4e\	[2g/
4B-\	.	.	4f\	.
=120	=120	=120	=120	=120
0G	1r	[0B-	2.g\	4g/]
.	.	.	.	4f/
.	.	.	.	4g/
.	.	.	4f\	4a/
.	[1G	.	1d	[1b-
=121	=121	=121	=121	=121
0r	4G/]	0B-]	2r	2b-\]
.	4F/	.	.	.
.	4G/	.	2.d\	4a/
.	4A/	.	.	4g/
.	2.B-\	.	.	1f
.	.	.	4c\	.
.	.	.	4d\	.
.	4A/	.	4e\	.
=122	=122	=122	=122	=122
0r	2F/	0A	2.f\	1r
.	2D/	.	.	.
.	.	.	4e\	.
.	2.F/	.	2c\	2r
.	.	.	2d\	2f/
.	4E/	.	.	.
=123	=123	=123	=123	=123
0r	2.C/	[0G	0e	2g/
.	.	.	.	4c/
.	4BB-/	.	.	4d/
.	4C/	.	.	4e/
.	4D/	.	.	4f/
.	[2E/	.	.	[2g/
=124	=124	=124	=124	=124
1r	2E/]	0G]	0c	4g/]
.	.	.	.	4f/
.	2F/	.	.	1f
1C	1C	.	.	.
.	.	.	.	2e/
=125	=125	=125	=125	=125
1D	1r	[0F	0A	[0f
[1F	1c	.	.	.
=126	=126	=126	=126	=126
2F\]	1d	0F_	0r	0f]
2F\	.	.	.	.
2.F\	[1f	.	.	.
4E\	.	.	.	.
=127	=127	=127	=127	=127
4D\	2f\]	0F_	0r	0r
4C/	.	.	.	.
1D	2f\	.	.	.
.	2.f\	.	.	.
4C/	.	.	.	.
4BB-/	4e\	.	.	.
=128	=128	=128	=128	=128
2AA/	2c\	0F_	0r	0r
1BB-	1d	.	.	.
4AA/	4c\	.	.	.
4GG/	4B-\	.	.	.
=129	=129	=129	=129	=129
0FF	0A	0F_	2r	1r
.	.	.	2F/	.
.	.	.	2c\	2r
.	.	.	2d\	2f/
=130	=130	=130	=130	=130
0r	0r	0F]	2c\	2cc\
.	.	.	2.f\	2dd\
.	.	.	.	2cc\
.	.	.	4g\	.
.	.	.	4a\	2ff\
.	.	.	4f\	.
=131	=131	=131	=131	=131
0r	0r	0c	2g\	4ee\
.	.	.	.	4dd\
.	.	.	4c\	1ee
.	.	.	4d\	.
.	.	.	4e\	.
.	.	.	4f\	.
.	.	.	[2g\	4dd\
.	.	.	.	4cc\
=132	=132	=132	=132	=132
0r	0r	0G	2g\]	2bni\
.	.	.	2e\	1cc
.	.	.	1d	.
.	.	.	.	2bni\
=133	=133	=133	=133	=133
1r	0r	0c	1c	1cc
1C	.	.	1e-	1g
=134	=134	=134	=134	=134
1C	1G	0c	1e-i	1g
1C	1G	.	1e-i	1g
=135	=135	=135	=135	=135
1.GG	1G	[0B-	1d	1.b-
.	1G	.	1G	.
2AA/	.	.	.	2a/
=136	=136	=136	=136	=136
1BB-	1D	0B-]	1.d	1f
1GG	1G	.	.	1g
.	.	.	2e\	.
=137	=137	=137	=137	=137
0D	1F	[0A	1f	0a
.	2r	.	2r	.
.	2F/	.	2f\	.
=138	=138	=138	=138	=138
0r	2c\	0A_	2e\	0r
.	2F/	.	2f\	.
.	2c\	.	2e\	.
.	2F/	.	2f\	.
=139	=139	=139	=139	=139
0r	2c\	0A_	2e\	0r
.	2.F/	.	1f	.
.	4G/	.	.	.
.	4A/	.	4e\	.
.	4B-\	.	4d\	.
=140	=140	=140	=140	=140
1r	1c	0A_	1e	1r
2r	1F	.	2r	2r
2D\	.	.	2A/	2f/
=141	=141	=141	=141	=141
2C/	0r	0A_	2c\	2e/
2D\	.	.	2F/	2f/
2AA/	.	.	2c\	2e/
2D\	.	.	2F/	2f/
=142	=142	=142	=142	=142
2C/	0r	0A]	2c\	2e/
1D	.	.	2.F/	1f
.	.	.	4G/	.
4C/	.	.	4A/	4e/
4BB-/	.	.	4B-\	4d/
=143	=143	=143	=143	=143
[0AA	1r	[0A	1c	[0e
.	2A/	.	2r	.
.	2c\	.	2A/	.
=144	=144	=144	=144	=144
0AA_	2A/	0A_	2c\	0e]
.	2.c\	.	4A/	.
.	.	.	4B-\	.
.	.	.	4c\	.
.	4B-\	.	4d\	.
.	4A/	.	[2e\	.
.	4G/	.	.	.
=145	=145	=145	=145	=145
0AA]	2A/	0A_	2e\]	0r
.	2F/	.	1d	.
.	1E	.	.	.
.	.	.	2c#i\	.
=146	=146	=146	=146	=146
0r	0D	0A_	1d	0r
.	.	.	2r	.
.	.	.	[2D/	.
=147	=147	=147	=147	=147
1r	1r	0A_	2D/]	0r
.	.	.	1F	.
1D	1d	.	.	.
.	.	.	4E/	.
.	.	.	4D/	.
=148	=148	=148	=148	=148
1AA	2.c\	0A]	1E	0r
.	4B-\	.	.	.
1D	1A	.	1F	.
=149	=149	=149	=149	=149
1GG	1G	0B-	4G/	0r
.	.	.	4A/	.
.	.	.	4B-\	.
.	.	.	4c\	.
2r	2r	.	2d\	.
2GG/	2G/	.	[2e\	.
=150	=150	=150	=150	=150
1D	2F/	0A	2e\]	0r
.	2D/	.	1d	.
1AA	1E	.	.	.
.	.	.	2c#i\	.
=151	=151	=151	=151	=151
0D	0D	[0F	1d	0r
.	.	.	1A	.
=152	=152	=152	=152	=152
1r	1A	0F]	1D	1r
1D	2D/	.	2A/	1f
.	2A/	.	2D/	.
=153	=153	=153	=153	=153
2D\	2D/	[0F	2A/	2f/
2D\	2A/	.	2D/	2f/
2D\	2D/	.	[1d	2f/
2D\	2A/	.	.	2f/
=154	=154	=154	=154	=154
1BB-	2.B-\	0F]	2d\]	1f
.	.	.	2c\	.
.	4A/	.	.	.
1D	2.F/	.	1A	1f
.	4G/	.	.	.
=155	=155	=155	=155	=155
1AA	0A	[0c	1r	1e
2r	.	.	2r	2r
[2F\	.	.	[2f\	[2a/
=156	=156	=156	=156	=156
2F\]	2r	0c_	2f\]	2a/]
2F\	1A	.	2f\	2a/
2F\	.	.	2f\	2a/
2F\	2A/	.	2f\	2a/
=157	=157	=157	=157	=157
2F\	2A/	0c]	2f\	2a/
2F\	2A/	.	2f\	2a/
1C	2.c\	.	1e	1g
.	4c\	.	.	.
=158	=158	=158	=158	=158
2r	2G/	0B-	2r	2r
2GG/	2G/	.	2d\	2g/
2GG/	2G/	.	2d\	2g/
2GG/	2G/	.	2d\	2d/
=159	=159	=159	=159	=159
*	*M2/1	*	*	*M2/1
*	*met(3)	*	*	*met(3)
3%2CV	3%2E	0G	3%2cV	3%2e
3C/Z	3C/	.	3c\Z	3e/
3GG/V	3G/	.	3B-\V	3d/
3%2CZ	3%2E	.	3%2cZ	3%2e
=160	=160	=160	=160	=160
3%2BB-V	3%2F	0B-	3%2dV	3%2d
3GG/Z	3G/	.	3d\Z	3b-\
3GG/V	3G/	.	3d\V	3b-\
3%2GGZ	3%2G	.	3%2dZ	3%2g
=161	=161	=161	=161	=161
3%2DV	3%2F	0A	3%2fV	3%2a
3D\Z	3F/	.	3f\Z	3a/
3F\V	3F/	.	3f\V	3a/
3%2FZ	3%2A	.	3%2fZ	3%2f
=162	=162	=162	=162	=162
*	*	*	*M2/1	*M2/1
*	*	*	*met(3)	*met(C|)
[0C	3%2c	0G	3e\	1g
.	.	.	3c\	.
.	3c\	.	3d\	.
.	3%2c	.	3.e\	1r
.	.	.	6f\	.
.	3G/	.	3g\	.
=163	=163	=163	=163	=163
0C]	3A/	[0c	3c\	0r
.	3G/	.	3.g\	.
.	3A/	.	.	.
.	.	.	6f\	.
.	3F/	.	3%2f	.
.	3%2G	.	.	.
.	.	.	3e\	.
=164	=164	=164	=164	=164
*	*M2/1	*	*M2/1	*
*	*met(C|)	*	*met(C|)	*
2r	1F	0c]	1f	2r
2F\	.	.	.	2a/
2E\	1r	.	1r	2g/
2F\	.	.	.	2a/
=165	=165	=165	=165	=165
3%2DV	0r	[0d	0r	3%2fV
3D\Z	.	.	.	3f/Z
3G\V	.	.	.	3b-\V
3%2GZ	.	.	.	3%2b-Z
=166	=166	=166	=166	=166
2D\	2r	0d]	2r	2a/
2GG/	2G/	.	2d\	2b-\
2D\	2F/	.	2f\	2a/
2GG/	2G/	.	2d\	2b-\
=167	=167	=167	=167	=167
3%2CV	3%2EV	[0c	3%2eV	2g/
.	.	.	.	2g/
3C/Z	3E/Z	.	3e\Z	.
3F\V	3A/V	.	3c\V	2a/
3%2FZ	3%2AZ	.	3%2fZ	.
.	.	.	.	2f/
=168	=168	=168	=168	=168
*	*	*	*M2/1	*M2/1
*	*	*	*met(3)	*met(3)
0C	0G	0c]	3%2e	3%2g
.	.	.	3r	3r
.	.	.	3g\	3ee\
.	.	.	3g\	3ee\
.	.	.	3g\	3ee\
=169	=169	=169	=169	=169
0r	0r	0A	3%2a	3ff\
.	.	.	.	3.ee\
.	.	.	3g\	.
.	.	.	.	6dd\
.	.	.	3f\	3%2dd
.	.	.	3%2e	.
.	.	.	.	3cc#i\
=170	=170	=170	=170	=170
*	*	*	*M2/1	*M2/1
*	*	*	*met(C|)	*met(C|)
2r	2r	0B-	2d\	2dd\
2GG/	2G/	.	2d\	2dd\
2GG/	2G/	.	2d\	2dd\
2GG/	2G/	.	2d\	2dd\
=171	=171	=171	=171	=171
*	*M2/1	*	*	*
*	*met(3)	*	*	*
3%2CV	3%2E	0G	2e\	3%2ccV
.	.	.	2c\	.
3C/Z	3E/	.	.	3cc\Z
3GG/V	3G/	.	2d\	3b-\V
3%2GGZ	3%2G	.	.	3%2b-Z
.	.	.	2d\	.
=172	=172	=172	=172	=172
3%2DV	3%2D	0F	3%2fV	2a/
.	.	.	.	2a/
3D\Z	3d\	.	3f\Z	.
3D\V	3d\	.	3f\V	2a/
3%2DZ	3%2d	.	3%2fZ	.
.	.	.	.	2a/
=173	=173	=173	=173	=173
3%2BB-V	3%2d	0B-	3%2fV	3%2b-V
3BB-/Z	3D/	.	3d\Z	3b-\Z
3BB-/V	3D/	.	3d\V	3f/V
3%2GGZ	3%2G	.	3%2dZ	3%2gZ
=174	=174	=174	=174	=174
*	*M2/1	*	*	*
*	*met(C|)	*	*	*
2.D\	2F/	0A	1f	0a
.	4D/	.	.	.
4C/	4E/	.	.	.
4D\	4F/	.	2r	.
4E\	4G/	.	.	.
2F\	2A/	.	2c\	.
=175	=175	=175	=175	=175
2r	2D/	[0F	2d\	2r
2F\	2A/	.	2c\	2cc\
2BB-/	2B-\	.	2.f\	2dd\
2F\	2A/	.	.	2cc\
.	.	.	4e\	.
=176	=176	=176	=176	=176
2BB-/	2B-\	0F]	2d\	2.ff\
2.F\	2.A/	.	2c\	.
.	.	.	.	4ee\
.	.	.	1f	2cc\
4E\	4G/	.	.	.
2D\	4A/	.	.	2dd\
.	4B-\	.	.	.
=177	=177	=177	=177	=177
[0C;	[0c;	[0G;	[0e;	2ee\
.	.	.	.	1cc
.	.	.	.	4b-\
.	.	.	.	4a/
=178	=178	=178	=178	=178
0C]	0c]	0G]	0e]	0g;
=179	=179	=179	=179	=179
0FF	0c	0F	0f	0a
=180	=180	=180	=180	=180
0FFl	0cl	0Fl	0fl	0al
==	==	==	==	==
*-	*-	*-	*-	*-
!!!RDF**kern: V=start of tuplet marker
!!!RDF**kern: Z=end of tuplet marker
!!!RDF**kern: l=long note in original notation
!!!RDF**kern: i=editorial accidental
!!!ENC:	Jesse Rodin; Victoria Chang 2011/05/17
!!!END:	2011/05/17/
!!!EED:	Jesse Rodin
!!!EEV:	2011/08/10/
!!attribution-level@Jos: 1 (secure)
!!!ONB:	Translated from MusicXML and edited on 2011/08/10/ by Craig Sapp
!!muse2ps: u^(2) @{OTL2}^C^@{COM}\n@{SCT}^I150v90,90,90,90,130i2I150c100Q16
